; generated by PrusaSlicer 2.3.0+ on 2021-12-30 at 21:11:32 UTC

; 

; external perimeters extrusion width = 0.45mm
; perimeters extrusion width = 0.45mm
; infill extrusion width = 0.45mm
; solid infill extrusion width = 0.45mm
; top infill extrusion width = 0.40mm
; support material extrusion width = 0.35mm
; first layer extrusion width = 0.42mm

; external perimeters extrusion width = 0.45mm
; perimeters extrusion width = 0.45mm
; infill extrusion width = 0.45mm
; solid infill extrusion width = 0.45mm
; top infill extrusion width = 0.40mm
; support material extrusion width = 0.35mm
; first layer extrusion width = 0.42mm

M73 P0 R15
M73 Q0 S15
M201 X1000 Y1000 Z200 E8000 ; sets maximum accelerations, mm/sec^2
M203 X200 Y200 Z12 E120 ; sets maximum feedrates, mm/sec
M204 P1250 R1250 T1250 ; sets acceleration (P, T) and retract acceleration (R), mm/sec^2
M205 X8.00 Y8.00 Z0.40 E4.50 ; sets the jerk limits, mm/sec
M205 S0 T0 ; sets the minimum extruding and travel feed rate, mm/sec
M107
;TYPE:Custom
M862.3 P "MK3SMMU2S" ; printer model check
M862.1 P0.4 ; nozzle diameter check
M115 U3.10.0 ; tell printer latest fw version
G90 ; use absolute coordinates
M83 ; extruder relative mode
M104 S240 ; set extruder temp
M140 S70 ; set bed temp
M190 S70 ; wait for bed temp
M109 S240 ; wait for extruder temp
G28 W ; home all without mesh bed level
G80 ; mesh bed leveling

; Send the filament type to the MMU2.0 unit.
; E stands for extruder number, F stands for filament type (0: default; 1:flex; 2: PVA)
M403 E0 F0
M403 E1 F0
M403 E2 F0
M403 E3 F0
M403 E4 F0


;go outside print area
G1 Y-3.0 F1000.0
M73 P1 R15
M73 Q1 S15
G1 Z0.4 F1000.0
; select extruder
T1
; initial load
G1 X55.0 E29.0 F1073.0
M73 P2 R15
M73 Q2 S15
G1 X5.0 E29.0 F1800.0
G1 X55.0 E8.0 F2000.0
G1 Z0.3 F1000.0
G92 E0.0
G1 X240.0 E25.0 F2200.0
M73 P2 R14
G1 Y-2.0 F1000.0
G1 X55.0 E25 F1400.0
M73 P3 R14
M73 Q3 S14
G1 Z0.20 F1000.0
G1 X5.0 E4.0 F1000.0
G92 E0.0


M221 S95
G92 E0.0

; Don't change E values below. Excessive value can damage the printer.
M907 E430 ; set extruder motor current
G21 ; set units to millimeters
G90 ; use absolute coordinates
M83 ; use relative distances for extrusion
T1
M900 K0.05 ; Filament gcode LA 1.5
M900 K30 ; Filament gcode LA 1.0
;LAYER_CHANGE
M117 INDICATOR-Layer1
;Z:0.2
;HEIGHT:0.2
;BEFORE_LAYER_CHANGE
G92 E0.0
;0.2


M73 P4 R14
M73 Q4 S14
G1 E-0.80000 F2100.000
G1 Z0.400 F10800.000
;AFTER_LAYER_CHANGE
;0.2
G1 X110.586 Y90.518
G1 Z0.200
G1 E0.80000 F2100.000
M204 S1000
;TYPE:Skirt
;WIDTH:0.42
G1 F1200.000
G1 X112.342 Y88.765 E0.07780
G1 X112.994 Y88.415 E0.02320
G1 X113.715 Y88.251 E0.02320
G1 X136.285 Y88.240 E0.70767
G1 X136.863 Y88.302 E0.01822
G1 X137.411 Y88.483 E0.01809
G1 X137.910 Y88.773 E0.01809
G1 X138.337 Y89.161 E0.01809
G1 X139.579 Y90.835 E0.06536
G1 X139.799 Y91.438 E0.02014
G1 X139.934 Y92.337 E0.02848
G1 X139.947 Y117.907 E0.80173
G1 X139.802 Y118.736 E0.02638
G1 X139.414 Y119.482 E0.02638
G1 X137.635 Y121.252 E0.07869
G1 X136.960 Y121.602 E0.02383
G1 X136.215 Y121.754 E0.02383
G1 X113.658 Y121.759 E0.70729
G1 X112.833 Y121.614 E0.02625
G1 X112.090 Y121.227 E0.02625
G1 X111.591 Y120.755 E0.02154
G1 X110.469 Y119.256 E0.05872
G1 X110.202 Y118.566 E0.02320
G1 X110.056 Y117.525 E0.03296
G1 X110.053 Y92.093 E0.79738
M73 Q5 S14
G1 X110.198 Y91.264 E0.02638
M73 P5 R14
G1 X110.558 Y90.571 E0.02450
G1 X110.890 Y90.745 F10800.000
G1 F1200.000
G1 X112.552 Y89.078 E0.07383
G1 X113.123 Y88.769 E0.02036
G1 X113.761 Y88.625 E0.02048
G1 X136.285 Y88.617 E0.70623
G1 X136.791 Y88.673 E0.01597
G1 X137.271 Y88.833 E0.01585
G1 X137.705 Y89.091 E0.01585
G1 X138.076 Y89.436 E0.01585
G1 X139.243 Y91.005 E0.06133
G1 X139.436 Y91.542 E0.01787
G1 X139.560 Y92.392 E0.02697
G1 X139.570 Y117.895 E0.79963
G1 X139.443 Y118.620 E0.02308
G1 X139.103 Y119.269 E0.02296
G1 X137.435 Y120.931 E0.07384
G1 X136.841 Y121.244 E0.02107
G1 X136.186 Y121.378 E0.02095
G1 X113.673 Y121.382 E0.70587
G1 X112.952 Y121.256 E0.02296
G1 X112.304 Y120.916 E0.02296
G1 X111.878 Y120.509 E0.01846
G1 X110.798 Y119.072 E0.05635
G1 X110.566 Y118.466 E0.02036
G1 X110.432 Y117.501 E0.03053
G1 X110.430 Y92.105 E0.79630
G1 X110.557 Y91.380 E0.02308
G1 X110.862 Y90.798 E0.02058
@Object Z ENDSTOP SWITCH ACTUATOR.stl id:0 copy 0
;WIPE_START
G1 F8640.000
G1 X112.552 Y89.078 E-0.55697
G1 X113.123 Y88.769 E-0.14993
G1 X113.348 Y88.718 E-0.05310
;WIPE_END
G1 E-0.04000 F2100.000
G1 Z0.600 F10800.000
G1 X113.719 Y119.006
G1 Z0.200
G1 E0.80000 F2100.000
;TYPE:Support material
G1 F1200.000
G1 X136.041 Y119.006 E0.69989
G1 X136.580 Y118.467 E0.02389
G1 X113.420 Y118.467 E0.72614
M73 Q6 S14
G1 X112.882 Y117.928 E0.02389
G1 X137.118 Y117.928 E0.75992
M73 P6 R14
G1 X137.193 Y117.853 E0.00332
G1 X137.193 Y117.390 E0.01454
G1 X112.807 Y117.390 E0.76463
G1 X112.807 Y116.851 E0.01689
G1 X137.193 Y116.851 E0.76463
G1 X137.193 Y116.312 E0.01689
G1 X112.807 Y116.312 E0.76463
G1 X112.807 Y115.774 E0.01689
G1 X137.193 Y115.774 E0.76463
G1 X137.193 Y115.235 E0.01689
G1 X112.807 Y115.235 E0.76463
G1 X112.807 Y114.696 E0.01689
G1 X137.193 Y114.696 E0.76463
M73 Q7 S14
G1 X137.193 Y114.158 E0.01689
G1 X112.807 Y114.158 E0.76463
M73 P7 R14
G1 X112.807 Y113.619 E0.01689
G1 X137.193 Y113.619 E0.76463
G1 X137.193 Y113.080 E0.01689
G1 X112.807 Y113.080 E0.76463
G1 X112.807 Y112.542 E0.01689
G1 X137.193 Y112.542 E0.76463
G1 X137.193 Y112.003 E0.01689
G1 X112.807 Y112.003 E0.76463
G1 X112.807 Y111.464 E0.01689
G1 X137.193 Y111.464 E0.76463
G1 X137.193 Y110.926 E0.01689
G1 X112.807 Y110.926 E0.76463
G1 X112.807 Y110.387 E0.01689
G1 X137.193 Y110.387 E0.76463
M73 P8 R14
M73 Q8 S14
G1 X137.193 Y109.848 E0.01689
G1 X112.807 Y109.848 E0.76463
G1 X112.807 Y109.309 E0.01689
G1 X137.193 Y109.309 E0.76463
G1 X137.193 Y108.771 E0.01689
G1 X112.807 Y108.771 E0.76463
G1 X112.807 Y108.296 E0.01489
G1 X112.871 Y108.232 E0.00284
G1 X137.193 Y108.232 E0.76262
G1 X137.193 Y107.693 E0.01689
G1 X113.409 Y107.693 E0.74573
G1 X113.948 Y107.155 E0.02389
G1 X137.193 Y107.155 E0.72884
G1 X137.193 Y106.616 E0.01689
G1 X122.035 Y106.616 E0.47528
M73 P9 R14
M73 Q9 S14
G1 X122.035 Y106.077 E0.01689
G1 X137.193 Y106.077 E0.47528
G1 X137.193 Y105.539 E0.01689
G1 X122.035 Y105.539 E0.47528
G1 X122.035 Y105.000 E0.01689
G1 X137.193 Y105.000 E0.47528
G1 X137.193 Y104.461 E0.01689
G1 X122.035 Y104.461 E0.47528
G1 X122.035 Y103.923 E0.01689
G1 X137.193 Y103.923 E0.47528
G1 X137.193 Y103.384 E0.01689
G1 X122.035 Y103.384 E0.47528
M73 P9 R13
G1 X122.035 Y103.351 E0.00104
G1 X114.454 Y103.351 E0.23771
G1 X113.948 Y102.845 E0.02242
G1 X137.193 Y102.845 E0.72884
M73 Q9 S13
G1 X137.193 Y102.307 E0.01689
G1 X113.409 Y102.307 E0.74573
G1 X112.871 Y101.768 E0.02389
G1 X137.193 Y101.768 E0.76262
M73 P10 R13
M73 Q10 S13
G1 X137.193 Y101.229 E0.01689
G1 X112.807 Y101.229 E0.76463
G1 X112.807 Y100.691 E0.01689
G1 X137.193 Y100.691 E0.76463
G1 X137.193 Y100.152 E0.01689
G1 X112.807 Y100.152 E0.76463
G1 X112.807 Y99.613 E0.01689
G1 X137.193 Y99.613 E0.76463
G1 X137.193 Y99.074 E0.01689
G1 X112.807 Y99.074 E0.76463
G1 X112.807 Y98.536 E0.01689
G1 X137.193 Y98.536 E0.76463
G1 X137.193 Y97.997 E0.01689
G1 X112.807 Y97.997 E0.76463
M73 P11 R13
M73 Q11 S13
G1 X112.807 Y97.458 E0.01689
G1 X137.193 Y97.458 E0.76463
G1 X137.193 Y96.920 E0.01689
G1 X112.807 Y96.920 E0.76463
G1 X112.807 Y96.381 E0.01689
G1 X137.193 Y96.381 E0.76463
G1 X137.193 Y95.842 E0.01689
G1 X112.807 Y95.842 E0.76463
G1 X112.807 Y95.304 E0.01689
G1 X137.193 Y95.304 E0.76463
G1 X137.193 Y94.765 E0.01689
G1 X112.807 Y94.765 E0.76463
G1 X112.807 Y94.226 E0.01689
G1 X137.193 Y94.226 E0.76463
M73 Q12 S13
G1 X137.193 Y93.688 E0.01689
G1 X112.807 Y93.688 E0.76463
M73 P12 R13
G1 X112.807 Y93.149 E0.01689
G1 X137.193 Y93.149 E0.76463
G1 X137.193 Y92.610 E0.01689
G1 X112.807 Y92.610 E0.76463
G1 X112.807 Y92.146 E0.01454
G1 X112.882 Y92.072 E0.00332
G1 X137.118 Y92.072 E0.75993
G1 X136.580 Y91.533 E0.02389
G1 X113.420 Y91.533 E0.72615
G1 X113.959 Y90.994 E0.02389
G1 X136.281 Y90.994 E0.69989
@Objectstop Z ENDSTOP SWITCH ACTUATOR.stl id:0 copy 0
M106 S84.15
;LAYER_CHANGE
M117 INDICATOR-Layer2
;Z:0.5
;HEIGHT:0.3
;BEFORE_LAYER_CHANGE
G92 E0.0
;0.5


;WIPE_START
G1 F8640.000
G1 X132.990 Y90.994 E-0.76000
;WIPE_END
G1 E-0.04000 F2100.000
G1 Z0.600 F10800.000
;AFTER_LAYER_CHANGE
;0.5
M104 S235 ; set temperature
G1 X132.988 Y88.242
G1 Z0.500
G1 E0.80000 F2100.000
;TYPE:Skirt
G1 F3000.000
G1 X136.285 Y88.240 E0.14623
G1 X136.863 Y88.302 E0.02578
G1 X137.411 Y88.483 E0.02559
G1 X137.910 Y88.773 E0.02559
G1 X138.337 Y89.161 E0.02559
G1 X139.579 Y90.835 E0.09246
G1 X139.799 Y91.438 E0.02849
G1 X139.934 Y92.337 E0.04029
G1 X139.947 Y117.907 E1.13416
G1 X139.802 Y118.736 E0.03732
G1 X139.414 Y119.482 E0.03732
G1 X137.635 Y121.252 E0.11132
G1 X136.960 Y121.602 E0.03372
G1 X136.215 Y121.754 E0.03372
G1 X113.658 Y121.759 E1.00055
M73 P13 R13
M73 Q13 S13
G1 X112.833 Y121.614 E0.03714
G1 X112.090 Y121.227 E0.03714
G1 X111.591 Y120.755 E0.03047
G1 X110.469 Y119.256 E0.08307
G1 X110.202 Y118.566 E0.03282
G1 X110.056 Y117.525 E0.04663
G1 X110.053 Y92.093 E1.12800
G1 X110.198 Y91.264 E0.03732
G1 X110.586 Y90.518 E0.03732
G1 X112.342 Y88.765 E0.11006
G1 X112.994 Y88.415 E0.03282
G1 X113.715 Y88.251 E0.03282
G1 X132.928 Y88.242 E0.85220
G1 X132.928 Y88.618 F10800.000
G1 F3000.000
G1 X136.285 Y88.617 E0.14887
G1 X136.791 Y88.673 E0.02260
G1 X137.271 Y88.833 E0.02243
G1 X137.705 Y89.091 E0.02243
G1 X138.076 Y89.436 E0.02243
G1 X139.243 Y91.005 E0.08676
G1 X139.436 Y91.542 E0.02528
G1 X139.560 Y92.392 E0.03815
G1 X139.570 Y117.895 E1.13118
G1 X139.443 Y118.620 E0.03264
G1 X139.103 Y119.269 E0.03248
G1 X137.435 Y120.931 E0.10445
G1 X136.841 Y121.244 E0.02980
G1 X136.186 Y121.378 E0.02964
G1 X113.673 Y121.382 E0.99855
G1 X112.952 Y121.256 E0.03248
G1 X112.304 Y120.916 E0.03248
G1 X111.878 Y120.509 E0.02612
G1 X110.798 Y119.072 E0.07972
G1 X110.566 Y118.466 E0.02880
G1 X110.432 Y117.501 E0.04319
G1 X110.430 Y92.105 E1.12647
G1 X110.557 Y91.380 E0.03264
G1 X110.897 Y90.731 E0.03248
G1 X112.552 Y89.078 E0.10378
G1 X113.123 Y88.769 E0.02880
G1 X113.761 Y88.625 E0.02897
G1 X132.868 Y88.618 E0.84752
@Object Z ENDSTOP SWITCH ACTUATOR.stl id:0 copy 0
;WIPE_START
G1 F8640.000
G1 X136.160 Y88.617 E-0.76000
;WIPE_END
G1 E-0.04000 F2100.000
G1 Z0.900 F10800.000
G1 X115.873 Y93.326
G1 Z0.500
G1 E0.80000 F2100.000
;TYPE:Support material interface
;WIDTH:0.35
G1 F2400.000
G1 X115.873 Y100.386 E0.25149
G1 X116.380 Y100.386 E0.01806
G1 X116.380 Y93.465 E0.24656
G1 X116.887 Y93.465 E0.01806
G1 X116.887 Y100.386 E0.24656
G1 X117.394 Y100.386 E0.01806
G1 X117.394 Y93.465 E0.24656
G1 X117.901 Y93.465 E0.01806
G1 X117.901 Y100.386 E0.24656
G1 X118.408 Y100.386 E0.01806
G1 X118.408 Y93.465 E0.24656
G1 X118.915 Y93.465 E0.01806
G1 X118.915 Y100.386 E0.24656
G1 X119.422 Y100.386 E0.01806
G1 X119.422 Y93.465 E0.24656
G1 X119.929 Y93.465 E0.01806
G1 X119.929 Y100.386 E0.24656
G1 X120.436 Y100.386 E0.01806
G1 X120.436 Y93.465 E0.24656
G1 X120.943 Y93.465 E0.01806
G1 X120.943 Y100.386 E0.24656
G1 X121.450 Y100.386 E0.01806
G1 X121.450 Y93.465 E0.24656
G1 X121.958 Y93.465 E0.01806
G1 X121.958 Y100.386 E0.24656
G1 X122.465 Y100.386 E0.01806
G1 X122.465 Y93.465 E0.24656
G1 X122.972 Y93.465 E0.01806
G1 X122.972 Y100.386 E0.24656
G1 X123.479 Y100.386 E0.01806
G1 X123.479 Y93.465 E0.24656
G1 X123.986 Y93.465 E0.01806
G1 X123.986 Y100.386 E0.24656
G1 X124.493 Y100.386 E0.01806
G1 X124.493 Y93.465 E0.24656
G1 X125.000 Y93.465 E0.01806
G1 X125.000 Y116.535 E0.82188
M73 P14 R13
M73 Q14 S13
G1 X125.507 Y116.535 E0.01806
G1 X125.507 Y93.465 E0.82188
G1 X126.014 Y93.465 E0.01806
G1 X126.014 Y116.535 E0.82188
G1 X126.521 Y116.535 E0.01806
G1 X126.521 Y93.465 E0.82188
G1 X127.028 Y93.465 E0.01806
G1 X127.028 Y116.535 E0.82188
G1 X127.535 Y116.535 E0.01806
G1 X127.535 Y93.465 E0.82188
G1 X128.042 Y93.465 E0.01806
G1 X128.042 Y116.535 E0.82188
G1 X128.550 Y116.535 E0.01806
G1 X128.550 Y93.465 E0.82188
G1 X129.057 Y93.465 E0.01806
G1 X129.057 Y116.535 E0.82188
G1 X129.564 Y116.535 E0.01806
G1 X129.564 Y93.465 E0.82188
G1 X130.071 Y93.465 E0.01806
G1 X130.071 Y116.535 E0.82188
G1 X130.578 Y116.535 E0.01806
G1 X130.578 Y93.465 E0.82188
G1 X131.085 Y93.465 E0.01806
G1 X131.085 Y116.535 E0.82188
G1 X131.592 Y116.535 E0.01806
G1 X131.592 Y93.465 E0.82188
G1 X132.099 Y93.465 E0.01806
G1 X132.099 Y116.535 E0.82188
M73 P15 R13
M73 Q15 S13
G1 X132.606 Y116.535 E0.01806
G1 X132.606 Y93.465 E0.82188
G1 X133.113 Y93.465 E0.01806
G1 X133.113 Y116.535 E0.82188
G1 X133.620 Y116.535 E0.01806
G1 X133.620 Y93.465 E0.82188
G1 X134.127 Y93.465 E0.01806
G1 X134.127 Y116.674 E0.82680
;WIPE_START
G1 F8640.000
G1 X134.127 Y113.382 E-0.76000
;WIPE_END
G1 E-0.04000 F2100.000
G1 Z0.900 F10800.000
G1 X124.493 Y116.674
G1 Z0.500
G1 E0.80000 F2100.000
G1 F2400.000
G1 X124.493 Y109.614 E0.25149
G1 X123.986 Y109.614 E0.01806
G1 X123.986 Y116.535 E0.24656
G1 X123.479 Y116.535 E0.01806
G1 X123.479 Y109.614 E0.24656
G1 X122.972 Y109.614 E0.01806
G1 X122.972 Y116.535 E0.24656
G1 X122.465 Y116.535 E0.01806
G1 X122.465 Y109.614 E0.24656
G1 X121.958 Y109.614 E0.01806
G1 X121.958 Y116.535 E0.24656
G1 X121.450 Y116.535 E0.01806
G1 X121.450 Y109.614 E0.24656
G1 X120.943 Y109.614 E0.01806
G1 X120.943 Y116.535 E0.24656
G1 X120.436 Y116.535 E0.01806
G1 X120.436 Y109.614 E0.24656
G1 X119.929 Y109.614 E0.01806
G1 X119.929 Y116.535 E0.24656
G1 X119.422 Y116.535 E0.01806
G1 X119.422 Y109.614 E0.24656
G1 X118.915 Y109.614 E0.01806
G1 X118.915 Y116.535 E0.24656
G1 X118.408 Y116.535 E0.01806
G1 X118.408 Y109.614 E0.24656
G1 X117.901 Y109.614 E0.01806
G1 X117.901 Y116.535 E0.24656
G1 X117.394 Y116.535 E0.01806
G1 X117.394 Y109.614 E0.24656
G1 X116.887 Y109.614 E0.01806
G1 X116.887 Y116.535 E0.24656
G1 X116.380 Y116.535 E0.01806
G1 X116.380 Y109.614 E0.24656
G1 X115.873 Y109.614 E0.01806
G1 X115.873 Y116.674 E0.25149
@Objectstop Z ENDSTOP SWITCH ACTUATOR.stl id:0 copy 0
M106 S170.85
;LAYER_CHANGE
M117 INDICATOR-Layer3
;Z:1
;HEIGHT:0.5
;BEFORE_LAYER_CHANGE
G92 E0.0
;1


;WIPE_START
G1 F8640.000
G1 X115.873 Y113.382 E-0.76000
;WIPE_END
G1 E-0.04000 F2100.000
G1 Z0.900 F10800.000
G1 Z1.000
;AFTER_LAYER_CHANGE
;1
G1 Z1.400
G1 X110.469 Y119.256
G1 Z1.000
G1 E0.80000 F2100.000
;TYPE:Skirt
;WIDTH:0.42
G1 F2069
G1 X110.202 Y118.566 E0.04809
G1 X110.056 Y117.525 E0.06834
G1 X110.053 Y92.093 E1.65310
G1 X110.198 Y91.264 E0.05469
G1 X110.586 Y90.518 E0.05469
G1 X112.342 Y88.765 E0.16130
M73 Q16 S13
G1 X112.994 Y88.415 E0.04809
G1 X113.715 Y88.251 E0.04809
G1 X136.285 Y88.240 E1.46711
M73 P16 R13
G1 X136.863 Y88.302 E0.03777
G1 X137.411 Y88.483 E0.03751
G1 X137.910 Y88.773 E0.03751
G1 X138.337 Y89.161 E0.03751
G1 X139.579 Y90.835 E0.13550
G1 X139.799 Y91.438 E0.04175
G1 X139.934 Y92.337 E0.05905
G1 X139.947 Y117.907 E1.66213
G1 X139.802 Y118.736 E0.05469
G1 X139.414 Y119.482 E0.05469
G1 X137.635 Y121.252 E0.16314
G1 X136.960 Y121.602 E0.04941
G1 X136.215 Y121.754 E0.04941
G1 X113.658 Y121.759 E1.46632
M73 P16 R12
G1 X112.833 Y121.614 E0.05442
G1 X112.090 Y121.227 E0.05442
G1 X111.591 Y120.755 E0.04466
G1 X110.504 Y119.304 E0.11784
;WIPE_START
G1 F8640.000
G1 X110.202 Y118.566 E-0.18421
G1 X110.056 Y117.525 E-0.24275
G1 X110.056 Y116.082 E-0.33304
;WIPE_END
G1 E-0.04000 F2100.000
G1 Z1.400 F10800.000
G1 X112.952 Y121.256
G1 Z1.000
G1 E0.80000 F2100.000
G1 F2069
G1 X112.304 Y120.916 E0.04760
G1 X111.878 Y120.509 E0.03828
G1 X110.798 Y119.072 E0.11682
G1 X110.566 Y118.466 E0.04221
G1 X110.432 Y117.501 E0.06330
G1 X110.430 Y92.105 E1.65085
M73 Q16 S12
G1 X110.557 Y91.380 E0.04784
G1 X110.897 Y90.731 E0.04760
G1 X112.552 Y89.078 E0.15209
G1 X113.123 Y88.769 E0.04221
G1 X113.761 Y88.625 E0.04245
G1 X136.285 Y88.617 E1.46413
G1 X136.791 Y88.673 E0.03311
G1 X137.271 Y88.833 E0.03287
G1 X137.705 Y89.091 E0.03287
G1 X138.076 Y89.436 E0.03287
G1 X139.243 Y91.005 E0.12714
G1 X139.436 Y91.542 E0.03705
G1 X139.560 Y92.392 E0.05590
G1 X139.570 Y117.895 E1.65776
G1 X139.443 Y118.620 E0.04784
G1 X139.103 Y119.269 E0.04760
G1 X137.435 Y120.931 E0.15307
G1 X136.841 Y121.244 E0.04368
G1 X136.186 Y121.378 E0.04343
G1 X113.673 Y121.382 E1.46339
