; generated by PrusaSlicer 2.3.0+ on 2021-12-30 at 20:40:44 UTC

; 

; external perimeters extrusion width = 0.45mm
; perimeters extrusion width = 0.45mm
; infill extrusion width = 0.45mm
; solid infill extrusion width = 0.45mm
; top infill extrusion width = 0.40mm
; support material extrusion width = 0.35mm
; first layer extrusion width = 0.42mm

; external perimeters extrusion width = 0.45mm
; perimeters extrusion width = 0.45mm
; infill extrusion width = 0.45mm
; solid infill extrusion width = 0.45mm
; top infill extrusion width = 0.40mm
; support material extrusion width = 0.35mm
; first layer extrusion width = 0.42mm

M73 P0 R14
M73 Q0 S14
M201 X1000 Y1000 Z200 E8000 ; sets maximum accelerations, mm/sec^2
M203 X200 Y200 Z12 E120 ; sets maximum feedrates, mm/sec
M204 P1250 R1250 T1250 ; sets acceleration (P, T) and retract acceleration (R), mm/sec^2
M205 X8.00 Y8.00 Z0.40 E4.50 ; sets the jerk limits, mm/sec
M205 S0 T0 ; sets the minimum extruding and travel feed rate, mm/sec
M107
;TYPE:Custom
M862.3 P "MK3SMMU2S" ; printer model check
M862.1 P0.4 ; nozzle diameter check
M115 U3.10.0 ; tell printer latest fw version
G90 ; use absolute coordinates
M83 ; extruder relative mode
M104 S240 ; set extruder temp
M140 S70 ; set bed temp
M190 S70 ; wait for bed temp
M109 S240 ; wait for extruder temp
G28 W ; home all without mesh bed level
G80 ; mesh bed leveling

; Send the filament type to the MMU2.0 unit.
; E stands for extruder number, F stands for filament type (0: default; 1:flex; 2: PVA)
M403 E0 F0
M403 E1 F0
M403 E2 F0
M403 E3 F0
M403 E4 F0


;go outside print area
G1 Y-3.0 F1000.0
M73 P1 R13
M73 Q1 S13
G1 Z0.4 F1000.0
; select extruder
T1
; initial load
G1 X55.0 E29.0 F1073.0
M73 P2 R13
M73 Q2 S13
G1 X5.0 E29.0 F1800.0
G1 X55.0 E8.0 F2000.0
G1 Z0.3 F1000.0
G92 E0.0
G1 X240.0 E25.0 F2200.0
M73 P3 R13
M73 Q3 S13
G1 Y-2.0 F1000.0
G1 X55.0 E25 F1400.0
M73 P4 R13
M73 Q4 S13
G1 Z0.20 F1000.0
G1 X5.0 E4.0 F1000.0
G92 E0.0


M221 S95
G92 E0.0

; Don't change E values below. Excessive value can damage the printer.
M907 E430 ; set extruder motor current
G21 ; set units to millimeters
G90 ; use absolute coordinates
M83 ; use relative distances for extrusion
T1
M900 K0.05 ; Filament gcode LA 1.5
M900 K30 ; Filament gcode LA 1.0
;LAYER_CHANGE
M117 INDICATOR-Layer1
;Z:0.2
;HEIGHT:0.2
;BEFORE_LAYER_CHANGE
G92 E0.0
;0.2


G1 E-0.80000 F2100.000
G1 Z0.400 F10800.000
;AFTER_LAYER_CHANGE
;0.2
G1 X110.700 Y92.680
G1 Z0.200
G1 E0.80000 F2100.000
M204 S1000
;TYPE:Skirt
;WIDTH:0.42
G1 F1200.000
G1 X112.504 Y90.912 E0.07920
G1 X113.150 Y90.568 E0.02294
G1 X113.863 Y90.406 E0.02294
G1 X136.133 Y90.395 E0.69824
G1 X136.690 Y90.453 E0.01758
G1 X137.225 Y90.622 E0.01758
G1 X137.714 Y90.897 E0.01758
G1 X138.137 Y91.265 E0.01758
G1 X139.365 Y92.874 E0.06347
G1 X139.786 Y93.836 E0.03292
G1 X139.928 Y94.441 E0.01950
G1 X139.946 Y115.620 E0.66406
M73 P5 R13
M73 Q5 S13
G1 X139.768 Y116.525 E0.02892
G1 X139.300 Y117.320 E0.02892
G1 X137.473 Y119.104 E0.08009
G1 X136.800 Y119.450 E0.02371
G1 X136.055 Y119.600 E0.02383
G1 X113.798 Y119.604 E0.69786
G1 X112.893 Y119.426 E0.02892
G1 X112.098 Y118.958 E0.02892
G1 X111.721 Y118.571 E0.01694
G1 X110.641 Y117.137 E0.05629
G1 X110.193 Y116.102 E0.03535
G1 X110.056 Y115.379 E0.02307
G1 X110.054 Y94.376 E0.65856
G1 X110.234 Y93.471 E0.02892
G1 X110.669 Y92.732 E0.02691
G1 X110.991 Y92.923 F10800.000
G1 F1200.000
G1 X112.708 Y91.230 E0.07560
G1 X113.276 Y90.924 E0.02024
G1 X113.909 Y90.780 E0.02036
G1 X136.132 Y90.772 E0.69680
G1 X136.620 Y90.823 E0.01538
G1 X137.087 Y90.974 E0.01538
G1 X137.513 Y91.217 E0.01538
G1 X137.880 Y91.542 E0.01538
G1 X139.035 Y93.056 E0.05969
G1 X139.431 Y93.962 E0.03099
G1 X139.556 Y94.506 E0.01752
G1 X139.570 Y115.604 E0.66150
G1 X139.413 Y116.396 E0.02532
G1 X139.001 Y117.090 E0.02532
G1 X137.277 Y118.781 E0.07573
G1 X136.685 Y119.091 E0.02095
G1 X136.030 Y119.224 E0.02095
G1 X113.814 Y119.227 E0.69656
G1 X113.022 Y119.071 E0.02532
G1 X112.328 Y118.659 E0.02532
G1 X110.973 Y116.958 E0.06820
G1 X110.554 Y115.995 E0.03289
G1 X110.433 Y115.358 E0.02036
G1 X110.430 Y94.393 E0.65734
M73 P6 R13
M73 Q6 S13
G1 X110.588 Y93.601 E0.02532
G1 X110.960 Y92.975 E0.02284
@Object Z ENDSTOP SWITCH ACTUATOR.stl id:0 copy 0
;WIPE_START
G1 F8640.000
G1 X112.708 Y91.230 E-0.57014
G1 X113.276 Y90.924 E-0.14905
G1 X113.448 Y90.885 E-0.04080
;WIPE_END
G1 E-0.04000 F2100.000
G1 Z0.600 F10800.000
G1 X136.129 Y93.149
G1 Z0.200
G1 E0.80000 F2100.000
;TYPE:Support material
G1 F1200.000
G1 X114.111 Y93.149 E0.69034
G1 X113.573 Y93.688 E0.02389
G1 X136.427 Y93.688 E0.71659
G1 X136.966 Y94.226 E0.02389
G1 X113.034 Y94.226 E0.75037
G1 X112.807 Y94.454 E0.01008
G1 X112.807 Y94.765 E0.00976
G1 X137.193 Y94.765 E0.76463
G1 X137.193 Y95.304 E0.01689
G1 X112.807 Y95.304 E0.76463
G1 X112.807 Y95.842 E0.01689
G1 X137.193 Y95.842 E0.76463
M73 P7 R13
M73 Q7 S13
G1 X137.193 Y96.381 E0.01689
G1 X112.807 Y96.381 E0.76463
G1 X112.807 Y96.920 E0.01689
G1 X137.193 Y96.920 E0.76463
G1 X137.193 Y97.458 E0.01689
G1 X112.807 Y97.458 E0.76463
G1 X112.807 Y97.997 E0.01689
G1 X137.193 Y97.997 E0.76463
G1 X137.193 Y98.536 E0.01689
G1 X112.807 Y98.536 E0.76463
G1 X112.807 Y99.074 E0.01689
G1 X137.193 Y99.074 E0.76463
M73 Q8 S13
G1 X137.193 Y99.613 E0.01689
G1 X112.807 Y99.613 E0.76463
M73 P8 R13
G1 X112.807 Y100.152 E0.01689
G1 X137.193 Y100.152 E0.76463
G1 X137.193 Y100.691 E0.01689
G1 X112.807 Y100.691 E0.76463
M73 P8 R12
M73 Q8 S12
G1 X112.807 Y101.229 E0.01689
G1 X137.193 Y101.229 E0.76463
G1 X137.193 Y101.768 E0.01689
G1 X112.807 Y101.768 E0.76463
G1 X112.807 Y102.307 E0.01689
G1 X137.193 Y102.307 E0.76463
G1 X137.193 Y102.845 E0.01689
G1 X112.807 Y102.845 E0.76463
M73 P9 R12
M73 Q9 S12
G1 X112.807 Y103.384 E0.01689
G1 X137.193 Y103.384 E0.76463
G1 X137.193 Y103.923 E0.01689
G1 X112.807 Y103.923 E0.76463
G1 X112.807 Y104.011 E0.00277
G1 X113.257 Y104.461 E0.01997
G1 X137.193 Y104.461 E0.75051
G1 X137.193 Y105.000 E0.01689
G1 X113.796 Y105.000 E0.73362
G1 X113.257 Y105.539 E0.02389
G1 X137.193 Y105.539 E0.75051
G1 X137.193 Y106.077 E0.01689
G1 X112.807 Y106.077 E0.76463
G1 X112.807 Y106.616 E0.01689
M73 Q10 S12
G1 X137.193 Y106.616 E0.76463
M73 P10 R12
G1 X137.193 Y107.155 E0.01689
G1 X112.807 Y107.155 E0.76463
G1 X112.807 Y107.693 E0.01689
G1 X137.193 Y107.693 E0.76463
G1 X137.193 Y108.232 E0.01689
G1 X112.807 Y108.232 E0.76463
G1 X112.807 Y108.771 E0.01689
G1 X137.193 Y108.771 E0.76463
G1 X137.193 Y109.309 E0.01689
G1 X112.807 Y109.309 E0.76463
G1 X112.807 Y109.848 E0.01689
G1 X137.193 Y109.848 E0.76463
M73 P11 R12
M73 Q11 S12
G1 X137.193 Y110.387 E0.01689
G1 X112.807 Y110.387 E0.76463
G1 X112.807 Y110.926 E0.01689
G1 X137.193 Y110.926 E0.76463
G1 X137.193 Y111.464 E0.01689
G1 X112.807 Y111.464 E0.76463
G1 X112.807 Y112.003 E0.01689
G1 X137.193 Y112.003 E0.76463
G1 X137.193 Y112.542 E0.01689
G1 X112.807 Y112.542 E0.76463
G1 X112.807 Y113.080 E0.01689
G1 X137.193 Y113.080 E0.76463
G1 X137.193 Y113.619 E0.01689
M73 Q12 S12
G1 X112.807 Y113.619 E0.76463
M73 P12 R12
G1 X112.807 Y114.158 E0.01689
G1 X137.193 Y114.158 E0.76463
G1 X137.193 Y114.696 E0.01689
G1 X112.807 Y114.696 E0.76463
G1 X112.807 Y115.235 E0.01689
G1 X137.193 Y115.235 E0.76463
G1 X137.193 Y115.546 E0.00976
G1 X136.966 Y115.774 E0.01008
G1 X113.034 Y115.774 E0.75037
G1 X113.573 Y116.312 E0.02389
G1 X136.427 Y116.312 E0.71659
G1 X135.889 Y116.851 E0.02389
G1 X113.871 Y116.851 E0.69034
@Objectstop Z ENDSTOP SWITCH ACTUATOR.stl id:0 copy 0
M106 S84.15
;LAYER_CHANGE
M117 INDICATOR-Layer2
;Z:0.5
;HEIGHT:0.3
;BEFORE_LAYER_CHANGE
G92 E0.0
;0.5


;WIPE_START
M73 P13 R12
M73 Q13 S12
G1 F8640.000
G1 X117.163 Y116.851 E-0.76000
;WIPE_END
G1 E-0.04000 F2100.000
G1 Z0.600 F10800.000
;AFTER_LAYER_CHANGE
;0.5
M104 S235 ; set temperature
G1 X117.163 Y119.604
G1 Z0.500
G1 E0.80000 F2100.000
;TYPE:Skirt
G1 F3000.000
G1 X113.798 Y119.604 E0.14929
G1 X112.893 Y119.426 E0.04091
G1 X112.098 Y118.958 E0.04091
G1 X111.721 Y118.571 E0.02397
G1 X110.641 Y117.137 E0.07963
G1 X110.193 Y116.102 E0.05001
G1 X110.056 Y115.379 E0.03264
G1 X110.054 Y94.376 E0.93162
G1 X110.234 Y93.471 E0.04091
G1 X110.700 Y92.680 E0.04073
G1 X112.504 Y90.912 E0.11204
G1 X113.150 Y90.568 E0.03246
G1 X113.863 Y90.406 E0.03246
G1 X136.133 Y90.395 E0.98776
G1 X136.690 Y90.453 E0.02487
G1 X137.225 Y90.622 E0.02487
G1 X137.714 Y90.897 E0.02487
G1 X138.137 Y91.265 E0.02487
G1 X139.365 Y92.874 E0.08979
G1 X139.786 Y93.836 E0.04657
G1 X139.928 Y94.441 E0.02758
G1 X139.946 Y115.620 E0.93940
G1 X139.768 Y116.525 E0.04091
G1 X139.300 Y117.320 E0.04091
G1 X137.473 Y119.104 E0.11330
G1 X136.800 Y119.450 E0.03354
G1 X136.055 Y119.600 E0.03372
G1 X117.223 Y119.604 E0.83527
G1 X117.223 Y119.227 F10800.000
G1 F3000.000
G1 X113.814 Y119.227 E0.15121
G1 X113.022 Y119.071 E0.03581
G1 X112.328 Y118.659 E0.03581
G1 X110.973 Y116.958 E0.09648
G1 X110.554 Y115.995 E0.04653
G1 X110.433 Y115.358 E0.02880
G1 X110.430 Y94.393 E0.92990
G1 X110.588 Y93.601 E0.03581
G1 X110.999 Y92.910 E0.03564
G1 X112.708 Y91.230 E0.10629
G1 X113.276 Y90.924 E0.02863
G1 X113.909 Y90.780 E0.02880
G1 X136.132 Y90.772 E0.98571
G1 X136.620 Y90.823 E0.02176
G1 X137.087 Y90.974 E0.02176
G1 X137.513 Y91.217 E0.02176
G1 X137.880 Y91.542 E0.02176
G1 X139.035 Y93.056 E0.08445
G1 X139.431 Y93.962 E0.04384
G1 X139.556 Y94.506 E0.02478
G1 X139.570 Y115.604 E0.93578
G1 X139.413 Y116.396 E0.03581
G1 X139.001 Y117.090 E0.03581
G1 X137.277 Y118.781 E0.10713
G1 X136.685 Y119.091 E0.02964
G1 X136.030 Y119.224 E0.02964
G1 X117.283 Y119.227 E0.83151
@Object Z ENDSTOP SWITCH ACTUATOR.stl id:0 copy 0
;WIPE_START
G1 F8640.000
G1 X113.992 Y119.227 E-0.76000
;WIPE_END
G1 E-0.04000 F2100.000
G1 Z0.900 F10800.000
G1 X115.873 Y114.367
G1 Z0.500
G1 E0.80000 F2100.000
;TYPE:Support material interface
;WIDTH:0.35
G1 F2400.000
G1 X115.873 Y107.307 E0.25149
G1 X116.380 Y107.307 E0.01806
G1 X116.380 Y114.228 E0.24656
G1 X116.887 Y114.228 E0.01806
G1 X116.887 Y107.307 E0.24656
G1 X117.394 Y107.307 E0.01806
G1 X117.394 Y114.228 E0.24656
G1 X117.901 Y114.228 E0.01806
G1 X117.901 Y107.307 E0.24656
G1 X118.408 Y107.307 E0.01806
G1 X118.408 Y114.228 E0.24656
G1 X118.915 Y114.228 E0.01806
G1 X118.915 Y107.307 E0.24656
G1 X119.422 Y107.307 E0.01806
G1 X119.422 Y114.228 E0.24656
G1 X119.929 Y114.228 E0.01806
G1 X119.929 Y107.307 E0.24656
G1 X120.436 Y107.307 E0.01806
G1 X120.436 Y114.228 E0.24656
G1 X120.943 Y114.228 E0.01806
G1 X120.943 Y107.307 E0.24656
M73 P14 R12
M73 Q14 S12
G1 X121.450 Y107.307 E0.01806
G1 X121.450 Y114.228 E0.24656
G1 X121.958 Y114.228 E0.01806
G1 X121.958 Y107.307 E0.24656
G1 X122.465 Y107.307 E0.01806
G1 X122.465 Y114.228 E0.24656
G1 X122.972 Y114.228 E0.01806
G1 X122.972 Y107.307 E0.24656
G1 X123.479 Y107.307 E0.01806
G1 X123.479 Y114.228 E0.24656
G1 X123.986 Y114.228 E0.01806
G1 X123.986 Y107.307 E0.24656
G1 X124.493 Y107.307 E0.01806
G1 X124.493 Y114.367 E0.25149
;WIPE_START
G1 F8640.000
G1 X124.493 Y111.075 E-0.76000
;WIPE_END
G1 E-0.04000 F2100.000
G1 Z0.900 F10800.000
G1 X134.127 Y114.367
G1 Z0.500
G1 E0.80000 F2100.000
G1 F2400.000
G1 X134.127 Y95.772 E0.66242
G1 X133.620 Y95.772 E0.01806
G1 X133.620 Y114.228 E0.65750
G1 X133.113 Y114.228 E0.01806
G1 X133.113 Y95.772 E0.65750
G1 X132.606 Y95.772 E0.01806
G1 X132.606 Y114.228 E0.65750
G1 X132.099 Y114.228 E0.01806
G1 X132.099 Y95.772 E0.65750
G1 X131.592 Y95.772 E0.01806
G1 X131.592 Y114.228 E0.65750
G1 X131.085 Y114.228 E0.01806
G1 X131.085 Y95.772 E0.65750
G1 X130.578 Y95.772 E0.01806
G1 X130.578 Y114.228 E0.65750
G1 X130.071 Y114.228 E0.01806
G1 X130.071 Y95.772 E0.65750
G1 X129.564 Y95.772 E0.01806
G1 X129.564 Y114.228 E0.65750
G1 X129.057 Y114.228 E0.01806
G1 X129.057 Y95.772 E0.65750
G1 X128.550 Y95.772 E0.01806
G1 X128.550 Y114.228 E0.65750
M73 P15 R12
M73 Q15 S12
G1 X128.042 Y114.228 E0.01806
G1 X128.042 Y95.772 E0.65750
G1 X127.535 Y95.772 E0.01806
G1 X127.535 Y114.228 E0.65750
G1 X127.028 Y114.228 E0.01806
G1 X127.028 Y95.772 E0.65750
G1 X126.521 Y95.772 E0.01806
G1 X126.521 Y114.228 E0.65750
G1 X126.014 Y114.228 E0.01806
G1 X126.014 Y95.772 E0.65750
G1 X125.507 Y95.772 E0.01806
G1 X125.507 Y114.228 E0.65750
G1 X125.000 Y114.228 E0.01806
G1 X125.000 Y95.772 E0.65750
G1 X124.493 Y95.772 E0.01806
G1 X124.493 Y102.693 E0.24656
G1 X123.986 Y102.693 E0.01806
G1 X123.986 Y95.772 E0.24656
G1 X123.479 Y95.772 E0.01806
G1 X123.479 Y102.693 E0.24656
G1 X122.972 Y102.693 E0.01806
G1 X122.972 Y95.772 E0.24656
G1 X122.465 Y95.772 E0.01806
G1 X122.465 Y102.693 E0.24656
G1 X121.958 Y102.693 E0.01806
G1 X121.958 Y95.772 E0.24656
G1 X121.450 Y95.772 E0.01806
G1 X121.450 Y102.693 E0.24656
M73 P15 R11
G1 X120.943 Y102.693 E0.01806
G1 X120.943 Y95.772 E0.24656
G1 X120.436 Y95.772 E0.01806
G1 X120.436 Y102.693 E0.24656
G1 X119.929 Y102.693 E0.01806
G1 X119.929 Y95.772 E0.24656
G1 X119.422 Y95.772 E0.01806
G1 X119.422 Y102.693 E0.24656
M73 Q15 S11
G1 X118.915 Y102.693 E0.01806
G1 X118.915 Y95.772 E0.24656
G1 X118.408 Y95.772 E0.01806
G1 X118.408 Y102.693 E0.24656
G1 X117.901 Y102.693 E0.01806
G1 X117.901 Y95.772 E0.24656
G1 X117.394 Y95.772 E0.01806
G1 X117.394 Y102.693 E0.24656
G1 X116.887 Y102.693 E0.01806
G1 X116.887 Y95.772 E0.24656
G1 X116.380 Y95.772 E0.01806
G1 X116.380 Y102.693 E0.24656
G1 X115.873 Y102.693 E0.01806
G1 X115.873 Y95.633 E0.25149
@Objectstop Z ENDSTOP SWITCH ACTUATOR.stl id:0 copy 0
M106 S170.85
;LAYER_CHANGE
M117 INDICATOR-Layer3
;Z:1
;HEIGHT:0.5
;BEFORE_LAYER_CHANGE
G92 E0.0
;1


;WIPE_START
G1 F8640.000
G1 X115.873 Y98.925 E-0.76000
;WIPE_END
M73 Q16 S11
G1 E-0.04000 F2100.000
G1 Z0.900 F10800.000
G1 Z1.000
;AFTER_LAYER_CHANGE
;1
M73 P16 R11
G1 Z1.400
G1 X110.234 Y93.471
G1 Z1.000
G1 E0.80000 F2100.000
;TYPE:Skirt
;WIDTH:0.42
G1 F1775
G1 X110.700 Y92.680 E0.05969
G1 X112.504 Y90.912 E0.16419
G1 X113.150 Y90.568 E0.04756
G1 X113.863 Y90.406 E0.04756
G1 X136.133 Y90.395 E1.44757
G1 X136.690 Y90.453 E0.03645
G1 X137.225 Y90.622 E0.03645
G1 X137.714 Y90.897 E0.03645
G1 X138.137 Y91.265 E0.03645
G1 X139.365 Y92.874 E0.13158
G1 X139.786 Y93.836 E0.06825
G1 X139.928 Y94.441 E0.04042
G1 X139.946 Y115.620 E1.37670
G1 X139.768 Y116.525 E0.05995
G1 X139.300 Y117.320 E0.05995
G1 X137.473 Y119.104 E0.16604
G1 X136.800 Y119.450 E0.04915
G1 X136.055 Y119.600 E0.04941
G1 X113.798 Y119.604 E1.44679
G1 X112.893 Y119.426 E0.05995
G1 X112.098 Y118.958 E0.05995
G1 X111.721 Y118.571 E0.03512
G1 X110.641 Y117.137 E0.11670
G1 X110.193 Y116.102 E0.07329
G1 X110.056 Y115.379 E0.04783
G1 X110.054 Y94.376 E1.36529
G1 X110.222 Y93.530 E0.05605
G1 X110.587 Y93.603 F10800.000
G1 F1775
G1 X110.999 Y92.910 E0.05236
G1 X112.708 Y91.230 E0.15577
G1 X113.276 Y90.924 E0.04196
G1 X113.909 Y90.780 E0.04221
G1 X136.132 Y90.772 E1.44457
G1 X136.620 Y90.823 E0.03188
G1 X137.087 Y90.974 E0.03188
G1 X137.513 Y91.217 E0.03188
G1 X137.880 Y91.542 E0.03188
G1 X139.035 Y93.056 E0.12376
G1 X139.431 Y93.962 E0.06425
G1 X139.556 Y94.506 E0.03631
G1 X139.570 Y115.604 E1.37140
G1 X139.413 Y116.396 E0.05248
G1 X139.001 Y117.090 E0.05248
G1 X137.277 Y118.781 E0.15700
G1 X136.685 Y119.091 E0.04343
G1 X136.030 Y119.224 E0.04343
G1 X113.814 Y119.227 E1.44408
G1 X113.022 Y119.071 E0.05248
G1 X112.328 Y118.659 E0.05248
G1 X110.973 Y116.958 E0.14140
G1 X110.554 Y115.995 E0.06819
G1 X110.433 Y115.358 E0.04221
G1 X110.430 Y94.393 E1.36277
G1 X110.576 Y93.662 E0.04845
@Object Z ENDSTOP SWITCH ACTUATOR.stl id:0 copy 0
;WIPE_START
G1 F8640.000
G1 X110.999 Y92.910 E-0.19911
G1 X112.708 Y91.230 E-0.55332
G1 X112.737 Y91.215 E-0.00756
;WIPE_END
G1 E-0.04000 F2100.000
G1 Z1.400 F10800.000
M73 Q17 S11
G1 X118.563 Y97.964
M73 P17 R11
G1 Z1.000
G1 E0.80000 F2100.000
M204 S800
;TYPE:Perimeter
;WIDTH:0.45
;HEIGHT:0.4
G1 F1775
G1 X129.900 Y97.964 E0.68658
G1 X129.900 Y112.036 E0.85218
G1 X118.563 Y112.036 E0.68658
G1 X118.563 Y111.214 E0.04976
G1 X129.078 Y111.214 E0.63681
G1 X129.078 Y98.786 E0.75266
G1 X118.563 Y98.786 E0.63681
G1 X118.563 Y98.024 E0.04613
M204 S1000
;WIPE_START
G1 F8640.000
G1 X121.854 Y98.007 E-0.76000
;WIPE_END
G1 E-0.04000 F2100.000
G1 Z1.400 F10800.000
G1 X128.714 Y110.850
G1 Z1.000
G1 E0.80000 F2100.000
M204 S800
;TYPE:External perimeter
